!!!!SEGMENT: pl-sa--l-1643--082_anonim--te-eternum-patrem.krn
!!!cenid: 16xx:1440
!!!COM: Anonim
!!!COM-rismid: pe30004985
!!!CDT:
!!!CNT:
!!!OTL: Te eternum patrem
!!!PDT:
!!!AGN: Sacred
!!!SMS-siglum: PL-SA
!!!SMS-shelfmark: L 1643
!!!SMS-shelfwork: 082 W
!!!SMS-variant:
!!!SMS-altvar:
!!!NIFC-rismid: 1001064766
!!!URL-scan: http://repozytorium.nifc.pl/skany/pl-sa-nut--l1643
!!!ONB-nifc: UWAGA: 8 ksiąg. Primi chori: 1mus Cantus (x), C 2dus (129-132), C 3tius (x), Bassus (x); Secondi chori: Primus Cantus (x), C 2dus (x), Altus (x), Bassus (x). UWAGA: Nie dodawać pustych linii, chyba że w rękopisie pojawiają się dodatkowe oznaczenia dotyczące pełnej obsady (a 4, a 8 itp.)
!!!key:
**kern	**text
*Iempty	*
*I"Cantus 2dus Primi Chori.	*
*I'C 2 Ch 1	*
*clefC1	*
*k[]	*
*e:	*
*M2/2	*
*met(C|)	*
=1	=1
1cc\	Te
=2-	=2-
!LO:SIC:v:l:s=ae-	!
2cc\	e-
1cc\	-ter-
=3-	=3-
.	.
2b\	.
=4-	=4-
1a\	-num
=5-	=5-
2.b\	pa-
4cc\	.
=6-	=6-
*lig	*
1b\	-trem
=7-	=7-
1a\	.
*Xlig	*
=8-	=8-
2r	.
1g\	om-
=9-	=9-
.	.
2g/	-nis
=10-	=10-
2a,<\	.
2a\	ter-
=11-	=11-
2a,<\	-ra
2b,<\	ue-
=12-	=12-
1b\	-ne-
=13-	=13-
2cc\	-ra-
2b\	-tur,
=14-	=14-
*lig	*
1a\	ti-
=15-	=15-
!LO:SIC:v:t=custos f	!
1g\;	-bi
*Xlig	*
=16-	=16-
!LO:PB:g=original	!
1cc\	Ti-
=17-	=17-
2cc\	-bi
1cc\	che-
=18-	=18-
.	.
2cc\	-ru-
=19-	=19-
2b\	-bim
2a\	et
=20-	=20-
2b\	se-
2cc\	.
=21-	=21-
1b\	-ra-
=22-	=22-
1a\	-phim
=23-	=23-
2r	.
1g\	in-
=24-	=24-
.	.
2g/	-ces-
=25-	=25-
2a\	-sa-
2a\	-bi-
=26-	=26-
2a\	-le
2a\	uo-
=27-	=27-
2b\	-ce
2b\	pro-
=28-	=28-
2cc\	-cla-
2b\	.
=29-	=29-
1a\	.
=30-	=30-
0g\;	-mant
=32-	=32-
!LO:LB:g=original	!
2g/	San-
2a\	.
=33-	=33-
2b\	.
2cc\	.
=34-	=34-
2b\	.
2a\	.
=35-	=35-
2g/	.
2a\	.
=36-	=36-
1b\	.
=37-	=37-
0a\l	-ctus;
=39||	=39||
1cc\	Ple-
=40-	=40-
2cc\	-ni
2cc\	ſunt
=41-	=41-
1cc\	cae-
=42-	=42-
2b\	-li
2a,<\	.
=43-	=43-
2b\	et
2cc\	ter-
=44-	=44-
*lig	*
1b\	-ra
=45-	=45-
1a\	.
*Xlig	*
=46-	=46-
!LO:SIC:v:t=custos g	!
2r	.
!LO:LB:g=original	!
1g\	ma-
=47-	=47-
.	.
2g/	-ie-
=48-	=48-
2a\	.
2a\	-ſta-
=49-	=49-
1a\,<	-tis
=50-	=50-
2a\	glo-
2b\	.
=51-	=51-
2b\	-ri-
2cc\	-ae
=52-	=52-
2b\	tu-
2a\	.
=53-	=53-
!LO:SIC:v:l:s=-ae	!
0g\l	-e,
=55||	=55||
1cc\	Te
=56-	=56-
2cc\	pro-
2b\	.
=57-	=57-
1a\	-fe-
=58-	=58-
2b\	-ta-
2cc\	.
=59-	=59-
*lig	*
1b\	-rum
=60-	=60-
1a\	.
*Xlig	*
=61-	=61-
2r	.
!LO:SIC:v:t=custos a	!
1a\	lau-
=62-	=62-
!	!
.	.
!LO:LB:g=original	!
2a\	-da-
=63-	=63-
2b\	.
2b\	-bi-
=64-	=64-
1cc\,<	-lis
=65-	=65-
2b\	nu-
2a\	.
=66-	=66-
1a\	-me-
=67-	=67-
0g\l	-rus;
=69||	=69||
1cc\	Te
=70-	=70-
2cc\	per
1b\	or-
=71-	=71-
.	.
2a\	-bem
=72-	=72-
2b\	ter-
2cc\	.
=73-	=73-
1b\	-ra-
=74-	=74-
1a\	-rum
=75-	=75-
2r	.
1g\	san-
=76-	=76-
.	.
2g\	-cta
=77-	=77-
2a\	.
!LO:SIC:v:t=custos a	!
2a\	con-
=78-	=78-
!LO:LB:g=original	!
2a\	-fi-
2b\	.
=79-	=79-
1b\	-te-
=80-	=80-
1cc\	-tur
=81-	=81-
2b\	ec-
2a\	-cle-
=82-	=82-
1a\	-si-
=83-	=83-
0g\l	-a;
=85||	=85||
1cc\	Ve-
=86-	=86-
2cc\	-ne-
2cc\	-ran-
=87-	=87-
1cc\	-dum
=88-	=88-
2b\	tu-
2a\	-um
=89-	=89-
2b\	ve-
2cc\	.
=90-	=90-
*lig	*
1b\	-rum
=91-	=91-
1a\	.
*Xlig	*
=92-	=92-
2r	.
1a\	et
=93-	=93-
.	.
2a\	u-
=94-	=94-
!LO:SIC:v:t=custos b	!
2b\	.
!LO:LB:g=original	!
2b\	-ni-
=95-	=95-
1cc\	-cum
=96-	=96-
2b\	fi-
2a\	.
=97-	=97-
1a\	-li-
=98-	=98-
!	!
0g#X\l	-um;
=100||	=100||
*lig	*
1e/	Tu
=101-	=101-
1a\	.
*Xlig	*
=102-	=102-
1a\	rex
=103-	=103-
2a\	glo-
2g/	.
=104-	=104-
2a\	-ri-
2a\	-ae
=105-	=105-
2.b\	.
4a\	.
=106-	=106-
2.g/	chri-
4f/	.
=107-	=107-
!LO:SIC:v:l:custos "tu"	!
0e/l	-ſte;
=109||	=109||
*M2/2	*
*met(C|)	*
1cc\	Tu
=110-	=110-
2cc\	ad
2cc\	li-
=111-	=111-
2cc\	-be-
2cc\	-ran-
=112-	=112-
1cc\	-dum
=113-	=113-
2cc\	ſus-
2cc\	-ce-
=114-	=114-
2b\	-ptu-
2a\	-rus
=115-	=115-
2b\	ho-
2cc\	-mi-
=116-	=116-
*lig	*
1b\	-nem
=117-	=117-
1a\	.
*Xlig	*
=118-	=118-
2r	.
1a\	non
=119-	=119-
.	.
!LO:TX:t=P:♯below:problem	!
2g#X,</	.
=120-	=120-
2a\	ho-
2a\	-ru-
=121-	=121-
2a\	-i-
2a\,<	ſti
=122-	=122-
!LO:SIC:v:t=custos b	!
2a\	uir-
!LO:LB:g=original	!
2b\	.
=123-	=123-
2b\	-gi-
2cc\	-nis
=124-	=124-
2b,<\	.
2a\	u-
=125-	=125-
1a\	-te-
=126-	=126-
0g#X\l	-rum;
=128||	=128||
1cc\	Tu
=129-	=129-
2cc\	ad
1cc\	dex-
=130-	=130-
.	.
2cc\	-te-
=131-	=131-
1cc\,<	-ram
=132-	=132-
2b\	de-
2a\	-i
=133-	=133-
2b\	se-
2cc\	.
=134-	=134-
1b\	.
=135-	=135-
2a\	-des
4r	.
4b\	in
=136-	=136-
4.dd\	glo-
!LO:SIC:v:t=custos d	!
8dd\	-ri-
!LO:LB:g=original	!
2dd\	-a
=137-	=137-
2r	.
4r	.
4b\	in
=138-	=138-
4.cc\	glo-
8cc\	-ri-
2cc\	-a
=139-	=139-
2r	.
4r	.
4cc\	in
=140-	=140-
4.dd\	glo-
8dd\	-ri-
2dd\	-a
=141-	=141-
2r	.
4r	.
4b\	in
=142-	=142-
4.cc\	glo-
8cc\	-ri-
4cc\	-a
4b\	in
=143-	=143-
4.dd\	glo-
8dd\	-ri-
4dd\	-a
4b\	in
=144-	=144-
4.cc\	glo-
8cc\	-ri-
!LO:SIC:v:t=custos c	!
2cc\	-a
=145-	=145-
*lig	*
!LO:LB:g=original	!
1cc\	pa-
=146-	=146-
1b\	.
*Xlig	*
=147-	=147-
0a\	.
=148-	=148-
.	.
=149-	=149-
0b\l	-tris;
=151||	=151||
1e/	Te
=152-	=152-
2g,</	.
2a\	er-
=153-	=153-
1a\	-go
=154-	=154-
2a\	quae-
2a\	ſu-
=155-	=155-
2a\	-mus
2a\	tu-
=156-	=156-
2a\	-is
2a\	fa-
=157-	=157-
2g/	-mu-
2a\	-lis
=158-	=158-
2b\	sub
2cc\	.
=159-	=159-
1b\	ue-
=160-	=160-
1a\	-ni
=161-	=161-
2r	.
1e/	quos
=162-	=162-
.	.
!LO:SIC:v:t=custos a	!
2g/	.
=163-	=163-
!LO:LB:g=original	!
2a\	pre-
2a\	-ci-
=164-	=164-
2a\	-o-
2a\	-so
=165-	=165-
1b\	ſan-
=166-	=166-
1a\	-gui-
=167-	=167-
2a\	-ne
!LO:TX:t=P:♯below:problem	!
2g#X/	.
=168-	=168-
1a\	re-
=169-	=169-
2a\	-de-
2b\	.
=170-	=170-
1.gny\	-mi-
=171-	=171-
.	.
2f/	.
=172-	=172-
0e/l	ſti;
=174||	=174||
1g\	Sal-
=175-	=175-
2a\	-uum
2cc\	.
=176-	=176-
1cc\	fac
=177-	=177-
2cc\	po-
2cc\	-pu-
=178-	=178-
1cc\	-lum
=179-	=179-
!LO:SIC:v:t=custos b	!
2cc\	tu-
!LO:LB:g=original	!
2b\	-um
=180-	=180-
2a\	do-
2cc\	.
=181-	=181-
2b\	-mi-
2a\	-.
=182-	=182-
1g\	ne
=183-	=183-
2r	.
1g\	et
=184-	=184-
.	.
2a\	be-
=185-	=185-
2cc\	.
2cc\	-ne-
=186-	=186-
1cc\,<	-dic
=187-	=187-
1cc\	hae-
=188-	=188-
2cc\	-re-
2b\	.
=189-	=189-
2a\	-di-
2g/	.
=190-	=190-
2cc\	-ta-
2dd\	.
=191-	=191-
1ee\,<	-[tis]
=192-	=192-
2dd\	tu-
2cc\	.
=193-	=193-
1b\	.
=194-	=194-
!LO:SIC:v:l:custos "per"	!
0b\l	-ae;
=196-	=196-
*M2/2	*
*met(C|)	*
!LO:PB:g=original	!
1b\	Per
=197-	=197-
2dd\	.
2ee\	sin-
=198-	=198-
2ee\	-gu-
2ee\	-los
=199-	=199-
1dd\	di-
=200-	=200-
2ee\	.
!LO:TX:t=P:♯below:problem	!
2ff#X\	.
=201-	=201-
1ee\	-es
=202-	=202-
2r	.
2ee\	be-
=203-	=203-
2ee\	-ne-
2dd\	-di-
=204-	=204-
2ee\	.
2ffny\	-ci-
=205-	=205-
2.dd\	-mus
4cc\	.
=206-	=206-
0b\l	te;
=208||	=208||
1b\	Di-
=209-	=209-
!LO:SIC:v:t=custos e	!
2dd\	-gna-
!LO:LB:g=original	!
2ee\	.
=210-	=210-
2ee\	-re
1ee\	do-
=211-	=211-
.	.
2ee\	-mi-
=212-	=212-
1ee\,<	-ne
=213-	=213-
2dd\	di-
2ee\	-e
=214-	=214-
2ff\	i-
2gg\	.
=215-	=215-
*lig	*
!	!
1ff\	ſto
=216-	=216-
1ee\	.
*Xlig	*
=217-	=217-
2r	.
1b\	si-
=218-	=218-
.	.
2dd\	-ne
=219-	=219-
2ee,<\	.
2ee\	pec-
=220-	=220-
1ee\	-ca-
=221-	=221-
2ee\	-to
2ee\	nos
=222-	=222-
2dd,<\	.
2ee\	cuſ-
=223-	=223-
2ee\	-to-
!LO:SIC:v:t=custos d	!
!LO:TX:t=P:♯below:problem	!
2ff#X\	.
=224-	=224-
!LO:LB:g=original	!
2.dd\	-di-
4cc\	.
=225-	=225-
0b\l	-re;
=227||	=227||
1b\	Fi-
=228-	=228-
2dd\	-at
2ee,<\	.
=229-	=229-
2ee\	mi-
2ee\	-se-
=230-	=230-
2ee\	-ri-
2ee\	-cor-
=231-	=231-
2ee\	-di-
2ee\	-a
=232-	=232-
2ee\	tu-
2ee\	-a
=233-	=233-
2ee\	do-
2dd\	-mi-
=234-	=234-
2ee,<\	-ne
2ff\	su-
=235-	=235-
2gg\	.
2ff\	-per
=236-	=236-
1ee\	nos
=237-	=237-
!LO:SIC:v:t=custos b	!
2r	.
!LO:LB:g=original	!
1b\,<	quem
=238-	=238-
.	.
2dd\	ad
=239-	=239-
2ee\	.
2ee\	mo-
=240-	=240-
2ee,<\	-dum
2ee\	spe-
=241-	=241-
2ee\	-ra-
2dd\	.
=242-	=242-
2ee\	-ui-
2ee\	-mus
=243-	=243-
1ff#X\	.
=244-	=244-
2.dd\	in
4cc\	.
=245-	=245-
0b\l	te;
=247-	=247-
*M2/2	*
*met(C|)	*
1cc\	In
=248-	=248-
2cc\	te
1cc\	do-
=249-	=249-
.	.
2a\	-mi-
=250-	=250-
2g/	.
2cc\	-ne
=251-	=251-
!LO:SIC:v:t=custos e	!
2dd\	spe-
!LO:LB:g=original	!
2ee\	.
=252-	=252-
2dd\	-ra-
2cc\	.
=253-	=253-
1cc\	-ui
=254-	=254-
2r	.
1g\	non
=255-	=255-
.	.
2a\	con-
=256-	=256-
2cc\	.
1cc\	-fun-
=257-	=257-
.	.
2b\	.
=258-	=258-
1a\	-dar
=259-	=259-
2g,</	.
2cc\	in
=260-	=260-
2dd\	e-
2ee\	-ter-
=261-	=261-
2dd,<\	-num
2cc\	in
=262-	=262-
2b\	ae-
2cc\	-ter-
=263-	=263-
2dd,<\	-num,
2cc\	in
=264-	=264-
2dd\	ae-
1ee\	-ter-
=265-	=265-
.	.
!LO:SIC:v:t=custos c	!
2dd\	-num
=266-	=266-
!LO:LB:g=original	!
2cc\	in
2b\	ae-
=267-	=267-
2cc\	-ter-
2dd\	-num,
=268-	=268-
2cc\	in
2dd\	ae-
=269-	=269-
2ee\	-ter-
2dd,<\	-num,
=270-	=270-
2cc\	i
1dd\	ae-
=271-	=271-
.	.
*lig	*
1cc\	-ter-
=272-	=272-
.	.
1b\	.
*Xlig	*
=273-	=273-
.	.
1b\l;	-num;
==	==
*-	*-
!!!system-decoration: [(s1)]
!!!AIN: 1 empty
!!!ENC: Andrzej Gręziak
!!!END: 2021-10-20
!!!RDF**kern: l = terminal long
!!!RDF**kern: < = below
!!!EED: Andrzej Borzym
!!!EST: 2021-10-23
